!!!!SEGMENT: pl-wn--mus-iii-62-775-2_zelenski-wladyslaw--trzy-piesni-do-slow-adama-asnyka-pan-jezus-chodzi-po-swiecie.krn
!!!cenid: 18xx:3769
!!!COM: Żeleński, Władysław
!!!COM-rismID: pe41024455
!!!CDT: 1837/07/06-1921/01/23
!!!CNT: Polish
!!!OTL: Trzy pieśni do słów Adama Asnyka/Pan Jezus chodzi po świecie
!!!PDT: 1902
!!!AGN:
!!!SMS-siglum: PL-Wn
!!!SMS-shelfmark: Mus.III.62.775/2
!!!SMS-shelfwork: W
!!!SMS-variant:
!!!SMS-altvar:
!!!NIFC-rismSourceID:
!!!NIFC-islandoraID:
!!!URL-pdf-islandora:
!!!URL-scan: https://polona.pl/item/trzy-piesni-do-slow-adama-asnyka-2-pan-jezus-chodzi-po-swiecie,NjkyOTI5MDM/0 @EN{Scan on Polona} @PL{Skany w portalu Polona}
!!!ONB-nifc:
!!!OMD: Andante, non troppo lento.
!!!AIN: 1 piano 1 vox
!!!key: A
**kern	**kern	**dynam	**kern	**text	**dynam
*part2	*part2	*part2	*part1	*part1	*part1
*staff3	*staff2	*	*staff1	*staff1	*
*I"Fortepian.	*I"Fortepian.	*	*I"Śpiew.	*	*
*Ipiano	*Ipiano	*	*Ivox	*	*
*ICklav	*ICklav	*	*ICvox	*	*
*IGacmp	*IGacmp	*	*IGsolo	*	*
*clefF4	*clefG2	*	*clefG2	*	*
*k[f#c#g#]	*k[f#c#g#]	*	*k[f#c#g#]	*	*
*A:	*A:	*	*A:	*	*
*M4/4	*M4/4	*	*M4/4	*	*
*met(c)	*met(c)	*	*met(c)	*	*
=1	=1	=1	=1	=1	=1
*	*^	*	*	*	*
(8AA/	4r	4ryy	.	1r	.	.
4E\)	.	.	.	.	.	.
.	(4cc#/	4g#\	p	.	.	.
4E\	.	.	.	.	.	.
.	4f#/)	4c#\	.	.	.	.
4E\	.	.	.	.	.	.
.	(8f#/L	4d\	.	.	.	.
8E\	8a/J	.	.	.	.	.
=2	=2	=2	=2	=2	=2	=2
(8AA/	2.e 2c#/)	2.ryy	.	1r	.	.
4E\)	.	.	.	.	.	.
4E\	.	.	.	.	.	.
4E\	.	.	.	.	.	.
.	(4cc#/	(8g#\L	pp	.	.	.
8E\	.	8e\J	.	.	.	.
=3	=3	=3	=3	=3	=3	=3
(8AA/	4b/)	4d\)	.	1r	.	.
4E\)	.	.	.	.	.	.
.	(4a/	(8c#\L	<	.	.	.
4E\	.	8e\J	.	.	.	.
.	4g#/)	4d#X\)	.	.	.	.
4E\	.	.	.	.	.	.
.	(4f#/	(8cn\L	.	.	.	.
8E\	.	8A\J	[	.	.	.
=4	=4	=4	=4	=4	=4	=4
(8EE/	[1e)	4G#\)	.	1r	.	.
4E\)	.	.	.	.	.	.
.	.	[4B^\	.	.	.	.
4E\	.	.	.	.	.	.
.	.	8B\L]	>	.	.	.
4E\	.	(8B\	.	.	.	.
.	.	8c#\	.	.	.	.
8E\	.	8d\J	]	.	.	.
!!LO:LB:g=original
=5	=5	=5	=5	=5	=5	=5
!	!LO:TX:b:i:t=dolce	!LO:TX:b:t=P:problem=brak zakończenia łuku	!	!	!	!LO:DY:a
(8AA/	4e/]	4c#\)	.	4e/	O!	p
4E\)	.	.	.	.	.	.
.	(4dd/	(8f#\L	.	8f#/	nie	.
4E\	.	8a\J	.	8a/	roz-	.
.	4cc#/)	4g#\)	.	4g#/	-pa-	.
4E\	.	.	.	.	.	.
.	(8f#/L	(4d\	.	8f#/	-czaj	.
8E\	8a/J	.	.	8a/	tak	.
=6	=6	=6	=6	=6	=6	=6
(8AA/	2.e) 2c#/)	2.ryy	.	2cc#\	dzie-	.
4E\)	.	.	.	.	.	.
4E\	.	.	.	.	.	.
.	.	.	.	4a/	-cię,	.
4E\	.	.	.	.	.	.
.	4cc#/	8g#\L	.	4ee\	Że	.
8E\	.	8e\J	.	.	.	.
=7	=7	=7	=7	=7	=7	=7
!	!	!	!	!LO:TX:a:i:t=espress.	!	!LO:HP:a
(8AA/	4a/	4f#\	<	4dd\	nie	<
4E\)	.	.	.	.	.	.
.	4cc#/	8gn\L	.	4cc#\	masz	.
4E\	.	8e\J	.	.	.	.
.	4f#/	4d#X\	.	4ccn\	oj-	.
4E\	.	.	.	.	.	.
.	(4b/	(8fn\L	[	8b\	-ca	.
8E\	.	8dn\J	.	8fn/	i	[
=8	=8	=8	=8	=8	=8	=8
!	!	!	!	!	!	!LO:HP:a
(8EE/	[2e/)	4c#\	.	2a/	mat-	>
4E\)	.	.	>	.	.	.
.	.	4cn\	.	.	.	.
4E\	.	.	.	.	.	.
.	2e/_	8B\L)	.	4g#/	-ki!	.
4E\	.	(8B\	.	.	.	]
!	!	!	!	!	!	!LO:DY:a
.	.	8d\	.	4e/	Pan	p
8E\	.	8c#X\J	]]	.	.	.
!!LO:LB:g=original
=9	=9	=9	=9	=9	=9	=9
(8EE/	4e/]	4B\)	.	4dd\	Je-	.
4E\)	.	.	.	.	.	.
.	(8f#/L	(4c#\	.	4cc#\	-zus	.
4E\	8a/J	.	.	.	.	.
.	4g#/)	4d\)	.	4b\	cho-	.
4E\	.	.	.	.	.	.
.	[4a/	(8c#\L	.	8cc#\	-dzi	.
8E\	.	8e\J	.	8a/	po	.
=10	=10	=10	=10	=10	=10	=10
!	!	!	!	!	!	!LO:HP:a
(8EE/	4a/]	4d#X\)	.	2b\	świe-	<
4E\)	.	.	.	.	.	.
.	(8g#/L	(2dn\	<	.	.	.
4E\	8b/J	.	.	.	.	.
.	[2e/)	.	.	4e/	-cie	.
4E\	.	.	.	.	.	.
.	.	8c#\L	.	4dd\	J	[[
8E\	.	8B\J	[	.	.	.
=11	=11	=11	=11	=11	=11	=11
(8EE/	4e/]	4A\)	.	4cc#\	zry-	.
4E\)	.	.	.	.	.	.
.	2f#^ 2d/	2ryy	.	8b\	-wa	.
4E\	.	.	.	8a/	na	.
.	.	.	.	(8g#/	łą-	.
4E\	.	.	.	4f#/)	.	.
.	(8f#/L	[4d\	>	.	.	.
!	!	!	!	!	!	!LO:HP:a
8E\	8a/J	.	.	8cc#\	-kach	>
=12	=12	=12	=12	=12	=12	=12
(8AA/	4g#/	8d\L]	.	4b\	kwiat-	.
4E\)	.	8e\J	.	.	.	.
.	[4a [4c#/)	2.ryy	.	2a/	-ki.	.
[<8E\	.	.	.	.	.	]
8E\L]	8a] 8c#/]	.	.	.	.	.
8E\	8r	.	]	.	.	.
8E\	4r	.	.	4r	.	.
8E\J	.	.	.	.	.	.
!!LO:PB:g=original
=13	=13	=13	=13	=13	=13	=13
*^	*	*	*	*	*	*
!	!	!	!	!	!LO:TX:a:iB:t=mysterioso	!	!LO:DY:a
8E\L	2ryy	4r	2ryy	.	4e/	Cho-	p
8E\	.	.	.	.	.	.	.
8E\	.	(4cc# &(>4g#/	.	pp	8e/	-dzi	.
8E\J	.	.	.	.	8e/	od	.
[2E/	8E\L	2f#/&)	4c#\	<	4f#/	wios-	.
.	8AA\	.	.	.	.	.	.
.	8AA\	.	8d#X\L	.	8f#/	-ki	.
.	8AA\J	.	8c#\J)	[	8f#/	do	.
*v	*v	*	*	*	*	*	*
*	*v	*v	*	*	*	*
=14	=14	=14	=14	=14	=14
8E] 8GG#/	8g#L 8B#X/	.	2g#/	wios-	.
!	!LO:TX:b:i:t=dolce	!	!	!	!
8r	(>8gg#/	.	.	.	.
4r	8b#X/	.	.	.	.
.	8ee/J	.	.	.	.
4r	8dd#X/L	.	4g#/	-ki	.
.	8cc#/	.	.	.	.
[4e 4c#\	8g#/	.	8r	.	.
.	8bn/J	.	8g#/	J	.
=15	=15	=15	=15	=15	=15
*^	*^	*	*	*	*
8e/]	8c#\L	8a/)	2ryy	<	4a/	z_kwia-	.
8r	8A\	8r	.	.	.	.	.
4r	8A\	(4ff# 4cc#\	.	.	8a/	-tów	.
.	8A\J	.	.	.	8a/	wia-	.
[2A/	8A\L	2b/	4f#\	.	4.b\	-necz-	.
.	8D\	.	.	.	.	.	.
.	8D\	.	8g#\L	.	.	.	.
.	8D\J	.	8f#\J)	.	8b\	-ki	.
!!LO:LB:g=original
=16	=16	=16	=16	=16	=16	=16	=16
!	!	!LO:TX:b:i:t=dolce	!	!	!	!	!
8A/]	8C#\	8cc#L 8e#X\	2.ryy	.	2cc#\	zwi-	.
8r	2.ryy	(8ccc#\	.	.	.	.	.
4r	.	8ee#X\	.	.	.	.	.
.	.	8aa\J	.	.	.	.	.
4r	.	8gg#\L	.	.	4cc#\	-ja	.
.	.	8ff#\	.	.	.	.	.
!	!	!	!	!	!LO:TX:a:i:t=espress.	!	!
(4c# [4F#\	.	8a\	4a/	.	4ee\	Szczę-	.
.	8ryy	8een\J	.	.	.	.	.
*v	*v	*	*	*	*	*	*
=17	=17	=17	=17	=17	=17	=17
8B 8F#\])	4dd#X/)	8a\L	<	4dd#X\	-śli-	.
8r	.	8f#\	.	.	.	.
!	!	!	!	!	!	!LO:HP:a
2AA/	2cc#/	8d#X\	.	4cc#\	-wym,	<
.	.	8f#\J	.	.	.	.
.	.	8d#\L	.	4cc#\	uś-	.
.	.	8f#\	.	.	.	.
[4A\	[4b/	8d#\	.	8f#/	-miech	.
.	.	8f#\J	[	8dd#\	oj-	[
=18	=18	=18	=18	=18	=18	=18
4A\]	4b/]	8dn\L	.	4cc#\	-cow-	.
.	.	8e#X\	.	.	.	.
(4G#\	4b/	8d\	>	[4b\	-ski	.
.	.	8e#\J	.	.	.	.
4A\	8e#/L	2c#\	.	8b\]	.	.
!	!	!	!	!	!	!LO:DY:a
.	8f#/	.	.	8a/	Do	p
4AA/)	8g#/	.	.	8g#/	cha-	.
.	8a/J	.	]	8f#/	-ty	.
!!LO:LB:g=original
=19	=19	=19	=19	=19	=19	=19
(4GG#/	8b 8e 8B/	8ryy	.	4b\	rzu-	.
.	[4.e/	8e\L	.	.	.	.
!	!	!	!	!	!	!LO:HP:a
2E\)	.	8d#X\	<	[2e/	-ca	<
.	.	8dn\J	.	.	.	.
.	4e/]	8c#\L	.	.	.	.
.	.	8A\	.	.	.	.
4E 4AA/	4f#/	8c#\	[	8e/]	.	[
!	!	!	!	!	!	!LO:DY:a
.	.	8e\J	.	8a/	i	p
=20	=20	=20	=20	=20	=20	=20
*^	*	*	*	*	*	*
4E/	4EE\	8g#/	8B\L	pp <	4g#/	mi-	.
.	.	[4.e/	8e\	.	.	.	.
[2.E/	2E\	.	8d#X\	.	4e/	-ja.	.
.	.	.	8dn\J	.	.	.	.
.	.	4e/]	8c#\L	.	2r	.	.
.	.	.	8A\	[	.	.	.
.	4AA\	(4a/	8cn\	>	.	.	.
.	.	.	8e\J	]]	.	.	.
=21	=21	=21	=21	=21	=21	=21	=21
8E/]	1EE	4g#/)	4B\	.	1r	.	.
4E/	.	.	.	.	.	.	.
.	.	(4dd/	8fn\L	p	.	.	.
4E/	.	.	8a\J	.	.	.	.
.	.	4ccn 4gn/	2ryy	.	.	.	.
4E/	.	.	.	.	.	.	.
.	.	8fnL 8d/	.	.	.	.	.
[8E/	.	8aJ 8cn/	.	.	.	.	.
!!LO:LB:g=original
=22	=22	=22	=22	=22	=22	=22	=22
8E/]	1EE	2.e 2.B/)	2.ryy	.	1r	.	.
4E/	.	.	.	.	.	.	.
4E/	.	.	.	.	.	.	.
4E/	.	.	.	.	.	.	.
.	.	(4ccn/	8e\L	pp	.	.	.
[<8E/	.	.	8gn\J	.	.	.	.
=23	=23	=23	=23	=23	=23	=23	=23
8E/]	1EE	4b/	4fn\	.	1r	.	.
4E/	.	.	.	.	.	.	.
.	.	4a/	8cn\L	.	.	.	.
4E/	.	.	8e\J	.	.	.	.
.	.	4gn/	4dn\	.	.	.	.
4E/	.	.	.	.	.	.	.
.	.	4fn/	(8A\L	<	.	.	.
[<8E/	.	.	8c\J	.	.	.	.
=24	=24	=24	=24	=24	=24	=24	=24
8E/]	1EE	[2e/)	4G#\	.	1r	.	.
4E/	.	.	.	.	.	.	.
.	.	.	2B\)	.	.	.	.
4E/	.	.	.	[	.	.	.
.	.	2e/_	.	.	.	.	.
4E/	.	.	.	.	.	.	.
.	.	.	(8A\L	.	.	.	.
8E/	.	.	8B\J	.	.	.	.
*v	*v	*	*	*	*	*	*
*	*v	*v	*	*	*	*
!!LO:PB:g=original
=25||	=25||	=25||	=25||	=25||	=25||
!!!key: a
*k[]	*k[]	*	*k[]	*	*
*	*^	*	*	*	*
!	!	!	!	!LO:TX:a:Bi:t=espress. e con gran tenerezza	!	!
8E 8AA/	4e/]	4cn\)	p	4e/	Lecz	.
4E\	.	.	.	.	.	.
.	(4a/	8f\L	.	8f/	gdy	.
4E\	.	8e\J	.	8cc\	sie-	.
.	4b/)	4d\	.	4b\	-ro-	.
4E\	.	.	.	.	.	.
.	[4a/	(8c\L	.	8a/	-tę	.
[8E\	.	8e\J	.	8cc\	na-	.
*	*v	*v	*	*	*	*
=26	=26	=26	=26	=26	=26
!	!	!	!	!	!LO:DY:a
8E/L]	8a]L 8c/)	<	2ee\	-pot-	<
(8E/	8e/	.	.	.	.
8C/	8c/	.	.	.	.
8AA/J	8A/J	.	.	.	.
8AA-X/L)	8A-X/L	.	4ee\	-ka	.
(8E/	8e/	.	.	.	.
8C/	8c/	.	[4ee\	W_cha-	[
8AA-/J	8A-/J	[	.	.	.
=27	=27	=27	=27	=27	=27
*	*	*^	*	*	*
8EE/L)	8E/	.	.	4ee\]	.	.
!	!	!LO:HP:b=2	!	!	!	!
(<8EE/	8r	<	.	.	.	.
!	!	!	!	!	!	!LO:HP:a
8AA-X/	[2.ee [2.cc [2.a-X [2.e/	.	f	8ee\	-cie	<
8C/J	.	.	.	8ee\	zwa-	.
8E\L)	.	.	.	4ee\	-lo-	.
(8E\	.	.	.	.	.	.
8A-X\	.	.	.	8dd\	-nej	.
8c\J	.	[	.	8cc\	od	.
*	*	*v	*v	*	*	*
!!LO:LB:g=original
=28	=28	=28	=28	=28	=28
*	*^	*	*	*	*
!LO:TX:a:t=P:problem=brak zakończenia łuku	!	!	!	!	!	!
8F/L)	(4ee] 4cc_ 4a-_ 4e/]	2ryy	.	4ee\	gro-	.
(<8FF/	.	.	.	.	.	.
8AA-X/	[>4dd 4cc_< 4a-_ [4d/)	.	.	4dd\	-mu,	.
8C/J	.	.	.	.	.	.
8F\)	8dd/L]	8cc] 8a-] 8d\]	.	4r	.	.
8r	(8dd/J	8r	.	.	.	.
!	!LO:TX:b:i:t=dolce	!	!	!LO:TX:a:i:t=dolce	!	!
(4D\	(4ff/)	8a-X\L	.	4ff\	Na-	.
.	.	8cc\J	.	.	.	.
=29	=29	=29	=29	=29	=29	=29
4E\	4ee/	8g\L	.	4ee\	-ten-	.
.	.	8b-X\	.	.	.	.
!	!	!	!	!	!	!LO:HP:a
4F\	4dd/	8f\	<	4dd\	-czas	<
.	.	8a-X\J	.	.	.	.
4G\	4cc/	8e\L	.	4cc\	zja-	.
.	.	8g\	.	.	.	.
4G#X\	4b-X/	8d\	.	8b-X\	-wia	.
.	.	8f\J	[	8b-\	się	[
=30	=30	=30	=30	=30	=30	=30
!	!	!	!	!	!	!LO:HP:a
2.A\)	2a/)	8c#X\L	.	2a/	słod-	>
.	.	8e\	.	.	.	.
.	.	8c#\	.	.	.	.
.	.	8e\J	.	.	.	.
.	4a/	8c#\L	.	4a/	-ka	]
.	.	8e\	.	.	.	.
!	!LO:TX:b:i:t=dolce	!	!	!LO:TX:a:i:t=dolce	!	!
4G#X\	4bn/	8d\	.	4bn\	Twarz	.
.	.	8f\J	.	.	.	.
!!LO:LB:g=original
=31	=31	=31	=31	=31	=31	=31
4A\	4cc/	8cn\L	.	4cc\	Je-	.
.	.	8f\	.	.	.	.
2A-X\	2b/	8d\	.	8b\	-go	.
.	.	8f\J	.	8b\	na	.
!	!	!	!	!	!	!LO:HP:a
.	.	8e\L	<	4.ee\	pro-	<
.	.	8g\	.	.	.	.
[4G\	[4b/	8f\	.	.	.	.
.	.	8g\J	[	8b\	-gach	[[
=32	=32	=32	=32	=32	=32	=32
!	!	!	!	!	!	!LO:HP:a
4G\]	4b/]	8f\L	>	4dd\	do-	>
.	.	8d\	.	.	.	.
2C/	[4cc/	8e\	.	4cc\	-mu.	.
.	.	8g\J	]	.	.	]
.	8cc/]	8c\	.	4r	.	.
.	8r	4.ryy	.	.	.	.
!	!	!	!	!LO:TX:a:i:t=poco piú mosso	!	!
(>8C/L	4r	.	.	4cc\	I	.
8D/J	.	.	.	.	.	.
*	*v	*v	*	*	*	*
=33	=33	=33	=33	=33	=33
*^	*	*	*	*	*
8E-X/)	2rEE	4r	p	4cc\	bos-	.
4E-/	.	.	.	.	.	.
.	.	(>4cc 4g/	.	8cc\	-kie	.
4E-/	.	.	.	8cc\	wy-	.
.	2AA-X\	[2f [2c/)	.	(8cc\	-cią-	.
4E-/	.	.	.	4b-X\)	.	.
8E-/	.	.	.	8a-X/	-ga	.
*v	*v	*	*	*	*	*
=34	=34	=34	=34	=34	=34
*	*^	*	*	*	*
[2F [2D-X\	2f/_	8c\L]	.	4ee-X\	dło-	.
.	.	8An\	.	.	.	.
.	.	8B-X\	.	4dd-X\	-nie	.
.	.	8c\J	.	.	.	.
8F] 8D-\]	8f/]	8d-X\L	.	4r	.	.
8r	4.ryy	8en\	.	.	.	.
!	!	!	!	!	!	!LO:HP:a
4r	.	8f\	.	[4dd-\	A-	<
.	.	8b-X\J	.	.	.	.
!!LO:LB:g=original
=35	=35	=35	=35	=35	=35	=35
*^	*	*	*	*	*	*
8BB-X/	[2BB-\	8dd-X\	2.ryy	.	4dd-X\]	.	.
4F/	.	8r	.	.	.	.	.
.	.	(4dd- 4a-X\	.	.	8dd-\	-by	.
4F/	.	.	.	.	8dd-\	przy-	.
.	2BB-\]	4an 4e-X/)	.	.	8cc\L	-tu-	.
4F/	.	.	.	.	8a\J	.	.
.	.	(8b-X/L	[4d-X\	.	8b-X\	-lić	.
8F/	.	8f/J	.	.	8dd-\	sie-	.
=36	=36	=36	=36	=36	=36	=36	=36
*	*	*	*	*	*^	*	*
*	*	*	*	*	*	*cue	*	*
8BB-X/	2.BB-\	4a-X/	2d-\]	.	2ff/	4a-X\	-ro-	.
4E-X/	.	.	.	.	.	.	.	.
!	!	!	!	!	!	!LO:N:vis=2	!	!
.	.	2g/)	.	.	.	4g\	.	.
4E-/	.	.	.	.	.	.	.	.
.	.	.	4ryy	.	4ee-X/	4r	tę,	.
4E-/	.	.	.	.	.	.	.	.
.	(4D-X\	(8f/L	[4B-X\	.	4r	4ryy	.	.
[8E-/	.	8g/J	.	.	.	.	.	.
*	*	*	*	*	*	*Xcue	*	*
=37	=37	=37	=37	=37	=37	=37	=37	=37
!	!	!	!	!	!LO:TX:a:i:t=espress.	!	!	!LO:HP:a
8E-/]	2C\)	4.e-X/	4B-\]	<	4ee-X\	4ryy	Nie-	<
4E-X/	.	.	.	.	.	.	.	.
*	*	*	*	*	*	*cue	*	*
.	.	.	(4A-X\	.	8ee-/	8cc\	-sie	.
4E-/	.	8f/	.	.	8ee-/	8a-X\	jej	[
.	2BB-X\	4g/	2d-X\)	.	4gg/	4g\	blas-	.
4E-/	.	.	.	[	.	.	.	.
.	.	4b-X/	.	.	8ff/	8f\	-ki	.
*	*	*	*	*	*	*Xcue	*	*
8E-/	.	.	.	.	8dd-X/	8dd-\	i	.
!!LO:PB:g=original
=38	=38	=38	=38	=38	=38	=38	=38	=38
8AA-X/	[2AA-\	4cc/	2.c\	.	4cc\	4ryy	wo-	.
4E/	.	.	.	.	.	.	.	.
!	!	!	!	!	!	!LO:N:cue	!	!
.	.	4a-X/	.	.	2ee-X/	2a-X\	-nie	.
4E/	.	.	.	.	.	.	.	.
.	2AA-\]	4f/	.	.	.	.	.	.
4E/	.	.	.	.	.	.	.	.
.	.	4cc/)	4e-X\	.	[4ee-\	4ryy	Kwiat-	.
8E/	.	.	.	.	.	.	.	.
*	*	*v	*v	*	*	*	*	*
*	*	*	*	*v	*v	*	*
=39	=39	=39	=39	=39	=39	=39
8D-X/	[2D-\	(>4cc 4e-X/	.	4ee-\]	.	.
4A-X/	.	.	.	.	.	.
!	!	!	!	!	!	!LO:HP:a
.	.	2f 2d-X/)	<	8cc\	-ki	<
4A-/	.	.	.	8a-X/	nie-	.
.	2D-\]	.	.	4f/	-bies-	.
4A-/	.	.	.	.	.	.
.	.	(>4dd-X 4f/	[	8.a-/	-kie	[
[8A-/	.	.	.	.	.	.
.	.	.	.	16dd-X\	i	.
=40	=40	=40	=40	=40	=40	=40
*	*	*^	*	*	*	*
8A-/]	[1E-X	4cc 4e-X/)	4ryy	>	4cc\	zło-	.
4A-y/	.	.	.	.	.	.	.
.	.	[4f/	[4dn\	]	2b-X\	-te.	.
4A-/	.	.	.	.	.	.	.
.	.	8f/L]	8d\]	.	.	.	.
!	!	!	!	!LO:HP:t=dim.	!	!	!
4A-/	.	8f/	4.d\	>	.	.	.
.	.	8a-X/	.	.	4r	.	.
[8A-/	.	8cc/J	.	.	.	.	.
*	*	*v	*v	*	*	*	*
=41	=41	=41	=41	=41	=41	=41
8A-/]	(1E-]	(>2b-X [2d-X/	.	4r	.	.
4A-X/	.	.	.	.	.	.
.	.	.	.	4ryy	.	.
[8A-/	.	.	.	.	.	.
8A-/L]	.	4e-X 4d-/])	.	4r	.	.
(8G/	.	.	.	.	.	.
!	!	!	!	!	!	!LO:DY:a
8F/	.	4e- 4d-/	pp	4e-X/	A	p
8G/J	.	.	.	.	.	.
!!LO:LB:g=original
=42	=42	=42	=42	=42	=42	=42
*	*	*^	*	*	*	*
!	!	!	!	!	!LO:TX:a:Bi:t=mysterioso	!	!
8G#XL 8En\))	2ryy	[2g#X/	2.B\	.	4g#X/	każ-	.
8BBn\	.	.	.	.	.	.	.
8E\	.	.	.	.	4g#/	-dy	.
8BB\J	.	.	.	.	.	.	.
8EE/L	2EE\	2g#/_	.	.	4g#/	kwia-	.
8BB/	.	.	.	.	.	.	.
8E/	.	.	4B#X\	.	8f#X/	-tek	.
8GG#X/J	.	.	.	.	8e/	nie-	.
=43	=43	=43	=43	=43	=43	=43	=43
8AA/L	2AA\	(4g#/]	[1c#X	.	4b\	-bies-	.
8E/	.	.	.	.	.	.	.
8A/	.	2f#X/)	.	.	4a/	-ki,	.
8E/J	.	.	.	.	.	.	.
8AA/L	2AA\	.	.	.	4r	.	.
8E/	.	.	.	.	.	.	.
8A/	.	(4f#/	.	.	[4a/	Któ-	.
8E/J	.	.	.	.	.	.	.
=44	=44	=44	=44	=44	=44	=44	=44
8FF#X/L	2FF#\	4a/	4c#\]	.	4a/]	.	.
8C#X/	.	.	.	.	.	.	.
!	!	!	!	!	!	!	!LO:HP:a
8F#X/	.	4e#X 4B/	2.ryy	<	8e#X/	-rym	<
8C#/J	.	.	.	.	8g#X/	Pan	.
8FF#/L	2FF#\	4f#X 4A/)	.	.	4f#X/	Je-	.
8C#/	.	.	.	.	.	.	.
8F#/	.	(>4cc#X 4e#/	.	[	8a/	-zus	.
8C#/J	.	.	.	.	8cc#X\	ob-	[
=45	=45	=45	=45	=45	=45	=45	=45
*	*	*	*	*	*^	*	*
*	*	*	*	*	*	*cue	*	*
!	!	!	!	!	!	!	!	!LO:HP:a
8BB/L	2BB\	2.a/)	(4e\	>	2ee/	2cc#X\	-da-	>
8F#X/	.	.	.	.	.	.	.	.
8B/	.	.	4c#X\	.	.	.	.	.
8F#/J	.	.	.	.	.	.	.	.
8BB/L	2BB\	.	2d#X\)	]	4dd#X/	4b\	-rzy,	]
8F#/	.	.	.	.	.	.	.	.
!	!	!	!	!	!	!	!	!LO:DY:a
8B/	.	(8g#X/L	.	.	4dd#/	4b\	O-	p
8F#/J	.	8f#X/J)	.	.	.	.	.	.
!!LO:LB:g=original
=46	=46	=46	=46	=46	=46	=46	=46	=46
4G#X/	4E\	8e/L	4e\	.	4ee/	4b\	-su-	.
.	.	8b/	.	.	.	.	.	.
(4F#X\	2.ryy	8ee/	2e\	.	8ee/	8b\	-sza	.
.	.	8b/J	.	.	8ee/	8b\	sie-	.
*	*	*	*	*	*	*Xcue	*	*
4Gn\	.	8ee/L	.	.	(<8ee/	8ee\	-ro-	.
.	.	8b/	.	.	4dd\)	4.ryy	.	.
[4G#X\)	.	8dd/	8f\L	.	.	.	.	.
.	.	8cc/J	8e\J	.	8ccn\	.	-ce	.
*v	*v	*	*	*	*v	*v	*	*
=47	=47	=47	=47	=47	=47	=47
4G#\]	4b/	8d\L	.	2b\	łez-	.
.	.	8f\	.	.	.	.
(4E\	4g#X/	8d\	.	.	.	.
.	.	8f\J	.	.	.	.
4A\)	4a/	8c\L	.	4a/	-ki	.
.	.	8e\	.	.	.	.
!	!LO:TX:b:i:t=dolce	!	!	!LO:TX:a:i:t=con tenerezza	!	!
(4D\	4ff/	8a\	.	4ff\	Wej-	.
.	.	8cc\J	.	.	.	.
=48	=48	=48	=48	=48	=48	=48
4E\	4ee/	8g\L	.	4ee\	-rze-	.
.	.	8b\	.	.	.	.
8F\L	8dd/L	8f\	.	8dd\	-niem	.
8Gn\J	8cc/J	8e\J	.	8cc\	mat-	.
4G#X\	4b/	8d\L	.	(4b\	-czy-	.
.	.	8f\	.	.	.	.
[4A\	[4a/	8c\	.	8a/)	.	.
.	.	8e\J	.	8cc\	-nej	.
=49	=49	=49	=49	=49	=49	=49
4A\])	4a/]	8c\L	.	2cc\	twa-	.
.	.	8e\	.	.	.	.
(2D\	(4cc/	8A\	<	.	.	.
.	.	8f\J	.	.	.	.
.	4b/	8B\L	[	4b\	-rzy	.
.	.	8f\	.	.	.	.
4D#X\	4a/	8c\	>	4r	.	.
.	.	8f\J	]]	.	.	.
!!LO:LB:g=original
=50	=50	=50	=50	=50	=50	=50
*^	*	*	*	*	*	*
8E/)	2rEE	4g#X/)	4B\	.	1r	.	.
4E/	.	.	.	.	.	.	.
.	.	(4dd/	8a\L	p	.	.	.
4E/	.	.	8f\J	.	.	.	.
.	[2EE\	4b/	4d\	.	.	.	.
4E/	.	.	.	.	.	.	.
.	.	8f/L	4c\	.	.	.	.
[8E/	.	8a/J	.	.	.	.	.
=51	=51	=51	=51	=51	=51	=51	=51
8E/]	1EE]	2.e 2.B/)	2.ry	.	1r	.	.
4E/	.	.	.	.	.	.	.
4E/	.	.	.	.	.	.	.
4E/	.	.	.	.	.	.	.
.	.	(4cc/	(8e\L	pp	.	.	.
[8E/	.	.	8gn\J	.	.	.	.
=52	=52	=52	=52	=52	=52	=52	=52
8E/]	[1EE	4b/	4f\	.	1r	.	.
4E/	.	.	.	.	.	.	.
.	.	4a/	8c\L	<	.	.	.
4E/	.	.	8e\J	.	.	.	.
.	.	4g/	4d\	.	.	.	.
4E/	.	.	.	.	.	.	.
.	.	4f/	8A\L	.	.	.	.
[8E/	.	.	8c\J	[	.	.	.
=53	=53	=53	=53	=53	=53	=53	=53
8E/]	1EE]	[1e)	4G#X\)	.	1r	.	.
4E/	.	.	.	.	.	.	.
.	.	.	[4B\	.	.	.	.
4E/	.	.	.	.	.	.	.
.	.	.	8B\L]	.	.	.	.
4E/	.	.	(8B\	.	.	.	.
.	.	.	8c#X\	.	.	.	.
[<8E/	.	.	8d\J	.	.	.	.
*v	*v	*	*	*	*	*	*
*	*v	*v	*	*	*	*
!!LO:PB:g=original
=54||	=54||	=54||	=54||	=54||	=54||
!!!key: A
*k[f#c#g#]	*k[f#c#g#]	*	*k[f#c#g#]	*	*
*^	*^	*	*	*	*
!LO:TX:a:t=P:problem=koniec ligatury na górze	!	!LO:TX:b:t=P:problem=brak zakończenia ligatury	!LO:TX:a:t=P:problem=brak zakończenia łuku	!	!	!	!LO:DY:a
8E/]	[2AA\	4e/]	4c#\)	.	4e/	Więc	p
4E/	.	.	.	.	.	.	.
!	!	!LO:TX:b:i:t=dolce	!	!	!	!	!
.	.	(4dd/	(8f#\L	.	8f#/	nie	.
4E/	.	.	8a\J	.	8a/	roz-	.
.	2AA\]	4cc#/)	4g#\)	.	4g#/	-pa-	.
4E/	.	.	.	.	.	.	.
.	.	(8f#/L	4d\	.	8f#/	-czaj	.
[8E/	.	8a/J	.	.	8a/	tak	.
=55	=55	=55	=55	=55	=55	=55	=55
8E/]	[2AA\	2.e/)	2.c#\	.	2cc#\	dzie-	.
4E/	.	.	.	.	.	.	.
4E/	.	.	.	.	.	.	.
.	2AA\]	.	.	.	4a/	-cię,	.
4E/	.	.	.	.	.	.	.
.	.	(4cc#/	8g#\L	.	4ee\	Że	.
[8E/	.	.	8e\J	.	.	.	.
=56	=56	=56	=56	=56	=56	=56	=56
!	!	!	!	!	!	!	!LO:HP:a
8E/]	[2AA\	4a 4f#/)	4ryy	<	4dd\	nie	<
4E/	.	.	.	.	.	.	.
.	.	(4cc#/	8gn\L	.	4cc#\	masz	.
4E/	.	.	8e\J	.	.	.	.
.	2AA\]	4f# 4d#/)	4ryy	.	4ccn\	oj-	.
4E/	.	.	.	.	.	.	[
.	.	(4b/	(8fn\L	[	8b\	-ca	.
[8E/	.	.	8dn\J	.	8fn/	i	.
!!LO:LB:g=original
=57	=57	=57	=57	=57	=57	=57	=57
!	!	!	!	!	!	!	!LO:HP:a
8E/]	1EE	[2e/)	4c#\	>	2a/	mat-	>
4E/	.	.	.	.	.	.	.
.	.	.	4cn\	.	.	.	.
4E/	.	.	.	]	.	.	.
.	.	2e/_	8B\L)	.	4g#/	-ki!	]
4E/	.	.	(8B\	.	.	.	.
!	!	!	!	!	!	!	!LO:DY:a
.	.	.	8d\	.	4e/	Pan	p
[8E/	.	.	8c#X\J	.	.	.	.
=58	=58	=58	=58	=58	=58	=58	=58
8E/]	1EE	4e/]	4B\)	.	4dd\	Je-	.
4E/	.	.	.	.	.	.	.
.	.	(8f#/L	(4c#\	.	4cc#\	-zus	.
4E/	.	8a/J	.	.	.	.	.
.	.	4g#/)	4d\)	.	4b\	cho-	.
4E/	.	.	.	.	.	.	.
.	.	[4a/	(8c#\L	.	8cc#\	-dzi	.
8E/	.	.	8e\J	.	8a/	po	.
=59	=59	=59	=59	=59	=59	=59	=59
!	!	!	!	!	!	!	!LO:HP:a
8E/	1EE	4a/]	4d#X\)	.	2b\	świe-	<
4E/	.	.	.	.	.	.	.
.	.	8g#/L	2dn\	<	.	.	.
4E/	.	8b/J	.	.	.	.	.
.	.	2e/	.	.	4e/	-cie,	.
4E/	.	.	.	.	.	.	.
.	.	.	8c#\L	.	4dd\	I	.
[8E/	.	.	8B\J	.	.	.	.
=60	=60	=60	=60	=60	=60	=60	=60
8E/]	1EE	4e/	4A\	[	4cc#\	zry-	.
4E/	.	.	.	.	.	.	.
.	.	2f#/	2d^\	.	8b\	-wa	.
4E/	.	.	.	.	8a/	na	[
.	.	.	.	.	(8g#/	łą-	.
4E/	.	.	.	.	4f#/)	.	.
.	.	(8f#/L	[4d\	.	.	.	.
!	!	!	!	!	!	!	!LO:HP:a
[8E/	.	8a/J	.	.	8cc#\	-kach	>]
!!LO:LB:g=original
=61	=61	=61	=61	=61	=61	=61	=61
8E/]	1AA	2g#/	4d\]	>	2b\	kwiat-	.
4E/	.	.	.	.	.	.	.
.	.	.	8e\L	.	.	.	.
[<8E/	.	.	8d\J	.	.	.	.
8E/L]	.	4a/)	4c#\	]	4a/	-ki.	.
8E/	.	.	.	.	.	.	.
8E/	.	4r	4ryy	.	4r	.	.
8E/J	.	.	.	.	.	.	.
=62	=62	=62	=62	=62	=62	=62	=62
8E/L	[2AA\	4r	4ryy	.	1r	.	.
8E/	.	.	.	.	.	.	.
8E/	.	4cc#/	(4g#\	pp	.	.	.
8E/J	.	.	.	.	.	.	.
[2E/	8AA\L]	(2f#/	4c#\	.	.	.	.
.	(8AA\	.	.	.	.	.	.
.	8AA\	.	8d#X\L	.	.	.	.
.	8AA\J	.	8c#\J	.	.	.	.
*	*	*v	*v	*	*	*	*
=63	=63	=63	=63	=63	=63	=63
8E/]	8GG#\)	8g#L 8B#X/))	.	1r	.	.
!	!	!LO:TX:b:i:t=dolce	!	!	!	!
8r	2.ryy	(>8gg#/	.	.	.	.
4r	.	8b#X/	.	.	.	.
.	.	8ee/J	.	.	.	.
4r	.	8dd#X/L	.	.	.	.
.	.	8cc#/	.	.	.	.
[4e [4c#\	.	8g#/	.	.	.	.
.	8ryy	8bn/J	.	.	.	.
=64	=64	=64	=64	=64	=64	=64
8e/]	8c#\L]	8a/)	.	1r	.	.
4.ryy	8A\	8r	.	.	.	.
.	8A\	(4ff# (4cc#\	pp	.	.	.
.	8A\J	.	<	.	.	.
[2A/	8A\L	2b 2f#/	.	.	.	.
!	!LO:TX:a:t=P:problem=brak początku łuku	!	!	!	!	!
.	(8D\	.	.	.	.	.
.	8D\	.	.	.	.	.
.	8D\J	.	[[	.	.	.
!!LO:LB:g=original
=65	=65	=65	=65	=65	=65	=65
*	*	*^	*	*	*	*
8A/]	8C#\)	8cc#L 8e#X\))	2.ryy	.	1r	.	.
!	!	!LO:TX:b:i:t=dolce	!	!	!	!	!
8r	2.ryy	(8ccc#\	.	.	.	.	.
4r	.	8ee#X\	.	.	.	.	.
.	.	8aa\J	.	.	.	.	.
4r	.	8gg#/L	.	.	.	.	.
.	.	8ff#/	.	.	.	.	.
(4c# [4F#\	.	8a/	[4a\	.	.	.	.
.	8ryy	8een/J	.	.	.	.	.
*v	*v	*	*	*	*	*	*
=66	=66	=66	=66	=66	=66	=66
!	!	!	!LO:HP:a	!	!	!
[2B 2F#\_)	[2dd/)	8a\L]	<	1r	.	.
.	.	(8a\	.	.	.	.
.	.	8g#\	.	.	.	.
.	.	8b\J	.	.	.	.
8B] 8F#\]	8dd/]	8a\L)	.	.	.	.
8r	8ree	(>8d\	.	.	.	.
4r	4ree	8c#\	[	.	.	.
.	.	8e\J	.	.	.	.
=67	=67	=67	=67	=67	=67	=67
!	!	!	!LO:HP:a	!	!	!
4r	[2d/	8d\L)	<	1r	.	.
.	.	8A\	.	.	.	.
2Fn^\	.	8G#\	.	.	.	.
.	.	8B\J	[	.	.	.
!	!	!	!LO:HP:a	!	!	!
.	(4.d/]	4A\	>	.	.	.
4F 4D\	.	4A\	.	.	.	.
.	8a/)	.	]	.	.	.
*	*v	*v	*	*	*	*
=68	=68	=68	=68	=68	=68
1E: 1AA:	1a: 1c#: 1A:	ppp	1r	.	.
==	==	==	==	==	==
*-	*-	*-	*-	*-	*-
!!!system-decoration: <s1>{(s2,s3)}
!!!RDF**kern: > = above
!!!RDF**kern: < = below
!!!ENC: Filip Voros
!!!END: 2022-03-14
!!!ENC: Andrzej Kubiczek
!!!END: 2022-03-19
